Newaita-dark/apps/32/itch.svg

<svg height="32" viewBox="0 0 32 32" width="32" xmlns="http://www.w3.org/2000/svg" xmlns:xlink="http://www.w3.org/1999/xlink"><linearGradient id="a" gradientTransform="matrix(.0582878 0 0 .062506 .994309 13.438785)" gradientUnits="userSpaceOnUse" x1="254" x2="254" y1="233.5" y2="254.666672"><stop offset="0" stop-opacity=".27451"/><stop offset="1" stop-opacity="0"/></linearGradient><linearGradient id="b"><stop offset="0" stop-opacity=".313726"/><stop offset=".222222" stop-opacity=".27451"/><stop offset="1" stop-opacity="0"/></linearGradient><radialGradient id="c" cx="450.908936" cy="189.579361" gradientTransform="matrix(.00000016 -.0781325 -.131148 -.0000001 50.532259 63.595333)" gradientUnits="userSpaceOnUse" r="21.166656" xlink:href="#b"/><radialGradient id="d" cx="450.908936" cy="189.579361" gradientTransform="matrix(-.00000016 .0781325 .131148 .0000001 -18.779227 -7.527479)" gradientUnits="userSpaceOnUse" r="21.166656" xlink:href="#b"/><radialGradient id="e" cx="450.908936" cy="189.579361" gradientTransform="matrix(-.00000016 -.0781325 .131148 -.0000001 -18.779227 63.595333)" gradientUnits="userSpaceOnUse" r="21.166656" xlink:href="#b"/><radialGradient id="f" cx="450.908936" cy="189.579361" gradientTransform="matrix(.00000016 .0781325 -.131148 .0000001 50.532258 -7.527479)" gradientUnits="userSpaceOnUse" r="21.166656" xlink:href="#b"/><linearGradient id="g" gradientUnits="userSpaceOnUse" x1="15.876524" x2="15.876524" y1="28.033934" y2="2.89610399997"><stop offset="0" stop-color="#f44336"/><stop offset="1" stop-color="#ef5350"/></linearGradient><linearGradient id="h" gradientUnits="userSpaceOnUse" x1="15.882909" x2="15.882909" y1="27.70311705514" y2="2.56535705514"><stop offset="0" stop-color="#bdbdbd"/><stop offset="1" stop-color="#e0e0e0"/></linearGradient><path d="m5.773438 28.035156h20.203124v1.320313h-20.203124zm0 0" fill="url(#a)"/><path d="m25.976562 28.035156h2.46875v-1.324218h-2.46875zm0 0" fill="url(#c)"/><path d="m5.773438 28.035156h-2.464844v1.320313h2.464844zm0 0" fill="url(#d)"/><path d="m5.773438 28.035156h-2.464844v-1.324218h2.464844zm0 0" fill="url(#e)"/><path d="m25.976562 28.035156h2.46875v1.320313h-2.46875zm0 0" fill="url(#f)"/><path d="m4.628906 2.894531h22.492188c.730468 0 1.324218.59375 1.324218 1.324219v22.492188c0 .730468-.59375 1.324218-1.324218 1.324218h-22.492188c-.730468 0-1.320312-.59375-1.320312-1.324218v-22.492188c0-.730469.589844-1.324219 1.320312-1.324219zm0 0" fill="url(#g)"/><path d="m4.628906 2.894531c-.730468 0-1.320312.589844-1.320312 1.324219v.335938c0-.734376.589844-1.324219 1.320312-1.324219h22.492188c.734375 0 1.324218.589843 1.324218 1.324219v-.335938c0-.734375-.589843-1.324219-1.324218-1.324219zm0 0" fill="#fff" fill-opacity=".392157"/><path d="m4.628906 28.035156c-.730468 0-1.320312-.589844-1.320312-1.324218v-.496094c0 .734375.589844 1.324218 1.320312 1.324218h22.492188c.734375 0 1.324218-.589843 1.324218-1.324218v.496094c0 .734374-.589843 1.324218-1.324218 1.324218zm0 0" fill-opacity=".235294"/><path d="m74.055428-168.691922h359.840637c11.686384 0 21.185477 9.499093 21.185477 21.185477v359.840637c0 11.686384-9.499093 21.185477-21.185477 21.185477h-359.840637c-11.686384 0-21.122983-9.499093-21.122983-21.185477v-359.840637c0-11.686384 9.436599-21.185477 21.122983-21.185477zm0 0" fill="none" stroke="#212121" stroke-linecap="round" stroke-linejoin="round" stroke-width="3" transform="matrix(.062506 0 0 .062506 0 13.438783)"/><path d="m11.914062 10.171875c-1.832031 0-3.308593 1.476563-3.308593 3.308594 0 .746093.246093 1.4375.664062 1.988281v.722656c0 2.199219.691407 3.96875 1.554688 3.96875h.195312c.789063 0 1.441407-1.488281 1.542969-3.433594.335938-.066406.65625-.1875.949219-.347656.054687.738282 1.710937.738282 1.710937-.253906h1.320313c0 .992188 1.65625.992188 1.710937.253906.292969.160156.613282.28125.949219.347656.101563 1.945313.753906 3.433594 1.546875 3.433594h.191406c.863282 0 1.558594-1.769531 1.558594-3.96875v-.722656c.414062-.550781.660156-1.242188.660156-1.988281 0-1.832031-1.476562-3.308594-3.308594-3.308594-1.085937 0-2.046874.519531-2.648437 1.324219h-2.640625c-.601562-.804688-1.5625-1.324219-2.648438-1.324219zm3.636719 2.152344h.664063c.183594 0 .328125.144531.328125.328125v.992187h.664062l-1.324219 1.65625-1.324218-1.65625h.664062v-.992187c0-.183594.144532-.328125.328125-.328125zm0 0" fill="url(#h)"/><path d="m11.914062 10.171875c-1.832031 0-3.308593 1.476563-3.308593 3.308594 0 .070312.003906.140625.007812.207031.105469-1.734375 1.535157-3.101562 3.300781-3.101562 1.085938 0 2.046876.519531 2.648438 1.324218h2.640625c.601563-.804687 1.5625-1.324218 2.648437-1.324218 1.765626 0 3.195313 1.367187 3.300782 3.101562.003906-.066406.007812-.136719.007812-.207031 0-1.832031-1.476562-3.308594-3.308594-3.308594-1.085937 0-2.046874.519531-2.648437 1.324219h-2.640625c-.601562-.804688-1.5625-1.324219-2.648438-1.324219zm2.644532 3.886719 1.324218 1.65625 1.324219-1.65625h-.332031l-.992188 1.242187-.992187-1.242187zm0 0" fill="#f7f7f7"/><path d="m15.550781 12.316406c-.183593 0-.328125.148438-.328125.332032v.730468c0-.183594.144532-.332031.328125-.332031h.664063c.183594 0 .328125.148437.328125.332031v-.730468c0-.183594-.144531-.332032-.328125-.332032zm-.992187 1.324219.585937.730469h.078125v-.730469zm1.984375 0v.730469h.078125l.585937-.730469zm-7.917969.199219c-.011719.121094-.019531.242187-.019531.363281 0 .75.246093 1.4375.664062 1.992187v.722657c0 2.199219.691407 3.96875 1.554688 3.96875h.195312c.789063 0 1.441407-1.492188 1.542969-3.4375.335938-.066407.65625-.183594.949219-.34375.054687.738281 1.710937.738281 1.710937-.253907h1.320313c0 .992188 1.65625.992188 1.710937.253907.292969.160156.613282.277343.949219.34375.101563 1.945312.753906 3.4375 1.546875 3.4375h.191406c.863282 0 1.558594-1.769531 1.558594-3.96875v-.722657c.414062-.554687.660156-1.242187.660156-1.992187 0-.121094-.007812-.242187-.019531-.363281-.066406.605468-.296875 1.164062-.640625 1.625v.722656c0 2.199219-.695312 3.96875-1.558594 3.96875h-.191406c-.792969 0-1.445312-1.492188-1.546875-3.4375-.335937-.066406-.65625-.183594-.949219-.34375-.054687.738281-1.710937.738281-1.710937-.253906h-1.320313c0 .992187-1.65625.992187-1.710937.253906-.292969.160156-.613281.277344-.949219.34375-.101562 1.945312-.753906 3.4375-1.542969 3.4375h-.195312c-.863281 0-1.554688-1.769531-1.554688-3.96875v-.722656c-.347656-.460938-.578125-1.019532-.644531-1.625zm0 0" fill-opacity=".235294"/><path d="m190.50395-46.974117c-29.309701 0-52.932445 23.622745-52.932445 52.932446 0 11.93636 3.937124 22.997803 10.623985 31.809462v11.561396c0 35.18414 11.061444 63.493937 24.872625 63.493937h3.124701c12.623795 0 23.060298-23.810227 24.685143-54.932255 5.374487-1.062398 10.498997-2.999713 15.18605-5.561969.874916 11.811373 27.372386 11.811373 27.372386-4.062112h21.122983c0 15.873485 26.497469 15.873485 27.372386 4.062112 4.687052 2.562256 9.811563 4.499571 15.18605 5.561969 1.624845 31.122028 12.061348 54.932255 24.747636 54.932255h3.062208c13.811181 0 24.935119-28.309797 24.935119-63.493937v-11.561396c6.624367-8.811659 10.561491-19.873102 10.561491-31.809462 0-29.309701-23.622744-52.932446-52.932445-52.932446-17.373341 0-32.746873 8.311707-42.370954 21.185477h-42.245965c-9.624081-12.87377-24.997613-21.185477-42.370954-21.185477zm58.181944 34.434212h10.623985c2.93722 0 5.249499 2.312279 5.249499 5.249499v15.873484h10.623985l-21.185477 26.49747-21.185477-26.49747h10.623986v-15.873484c0-2.93722 2.312279-5.249499 5.249499-5.249499zm0 0" fill="none" stroke="#212121" stroke-linecap="round" stroke-linejoin="round" stroke-width="3" transform="matrix(.062506 0 0 .062506 .006429 13.108038)"/></svg>

<?xml version="1.0" encoding="UTF-8"?>
<svg xmlns="http://www.w3.org/2000/svg" xmlns:xlink="http://www.w3.org/1999/xlink" width="32px" height="32px" viewBox="0 0 32 32" version="1.1">
<defs>
<linearGradient id="linear0" gradientUnits="userSpaceOnUse" x1="254" y1="233.5" x2="254" y2="254.666672" gradientTransform="matrix(0.0582878,0,0,0.062506,0.994309,13.438785)">
<stop offset="0" style="stop-color:rgb(0%,0%,0%);stop-opacity:0.27451;"/>
<stop offset="1" style="stop-color:rgb(0%,0%,0%);stop-opacity:0;"/>
</linearGradient>
<radialGradient id="radial0" gradientUnits="userSpaceOnUse" cx="450.908936" cy="189.579361" fx="450.908936" fy="189.579361" r="21.166656" gradientTransform="matrix(0.000000162417,-0.0781325,-0.131148,-0.000000101539,50.532259,63.595333)">
<stop offset="0" style="stop-color:rgb(0%,0%,0%);stop-opacity:0.313726;"/>
<stop offset="0.222222" style="stop-color:rgb(0%,0%,0%);stop-opacity:0.27451;"/>
<stop offset="1" style="stop-color:rgb(0%,0%,0%);stop-opacity:0;"/>
</radialGradient>
<radialGradient id="radial1" gradientUnits="userSpaceOnUse" cx="450.908936" cy="189.579361" fx="450.908936" fy="189.579361" r="21.166656" gradientTransform="matrix(-0.000000162417,0.0781325,0.131148,0.000000101539,-18.779227,-7.527479)">
<stop offset="0" style="stop-color:rgb(0%,0%,0%);stop-opacity:0.313726;"/>
<stop offset="0.222222" style="stop-color:rgb(0%,0%,0%);stop-opacity:0.27451;"/>
<stop offset="1" style="stop-color:rgb(0%,0%,0%);stop-opacity:0;"/>
</radialGradient>
<radialGradient id="radial2" gradientUnits="userSpaceOnUse" cx="450.908936" cy="189.579361" fx="450.908936" fy="189.579361" r="21.166656" gradientTransform="matrix(-0.000000162417,-0.0781325,0.131148,-0.000000101539,-18.779227,63.595333)">
<stop offset="0" style="stop-color:rgb(0%,0%,0%);stop-opacity:0.313726;"/>
<stop offset="0.222222" style="stop-color:rgb(0%,0%,0%);stop-opacity:0.27451;"/>
<stop offset="1" style="stop-color:rgb(0%,0%,0%);stop-opacity:0;"/>
</radialGradient>
<radialGradient id="radial3" gradientUnits="userSpaceOnUse" cx="450.908936" cy="189.579361" fx="450.908936" fy="189.579361" r="21.166656" gradientTransform="matrix(0.000000162417,0.0781325,-0.131148,0.000000101539,50.532258,-7.527479)">
<stop offset="0" style="stop-color:rgb(0%,0%,0%);stop-opacity:0.313726;"/>
<stop offset="0.222222" style="stop-color:rgb(0%,0%,0%);stop-opacity:0.27451;"/>
<stop offset="1" style="stop-color:rgb(0%,0%,0%);stop-opacity:0;"/>
</radialGradient>
<linearGradient id="linear1" gradientUnits="userSpaceOnUse" x1="254" y1="233.5" x2="254" y2="-168.666672" gradientTransform="matrix(0.062506,0,0,0.062506,0,13.438783)">
<stop offset="0" style="stop-color:rgb(95.686275%,26.274511%,21.176471%);stop-opacity:1;"/>
<stop offset="1" style="stop-color:rgb(93.725491%,32.549021%,31.37255%);stop-opacity:1;"/>
</linearGradient>
<linearGradient id="linear2" gradientUnits="userSpaceOnUse" x1="960" y1="1715.117188" x2="960" y2="195.117188" gradientTransform="matrix(0.016538,0,0,0.016538,0.00642863,-0.661491)">
<stop offset="0" style="stop-color:rgb(74.117649%,74.117649%,74.117649%);stop-opacity:1;"/>
<stop offset="1" style="stop-color:rgb(87.843138%,87.843138%,87.843138%);stop-opacity:1;"/>
</linearGradient>
</defs>
<g id="surface1">
<path style=" stroke:none;fill-rule:nonzero;fill:url(#linear0);" d="M 5.773438 28.035156 L 25.976562 28.035156 L 25.976562 29.355469 L 5.773438 29.355469 Z M 5.773438 28.035156 "/>
<path style=" stroke:none;fill-rule:nonzero;fill:url(#radial0);" d="M 25.976562 28.035156 L 28.445312 28.035156 L 28.445312 26.710938 L 25.976562 26.710938 Z M 25.976562 28.035156 "/>
<path style=" stroke:none;fill-rule:nonzero;fill:url(#radial1);" d="M 5.773438 28.035156 L 3.308594 28.035156 L 3.308594 29.355469 L 5.773438 29.355469 Z M 5.773438 28.035156 "/>
<path style=" stroke:none;fill-rule:nonzero;fill:url(#radial2);" d="M 5.773438 28.035156 L 3.308594 28.035156 L 3.308594 26.710938 L 5.773438 26.710938 Z M 5.773438 28.035156 "/>
<path style=" stroke:none;fill-rule:nonzero;fill:url(#radial3);" d="M 25.976562 28.035156 L 28.445312 28.035156 L 28.445312 29.355469 L 25.976562 29.355469 Z M 25.976562 28.035156 "/>
<path style=" stroke:none;fill-rule:nonzero;fill:url(#linear1);" d="M 4.628906 2.894531 L 27.121094 2.894531 C 27.851562 2.894531 28.445312 3.488281 28.445312 4.21875 L 28.445312 26.710938 C 28.445312 27.441406 27.851562 28.035156 27.121094 28.035156 L 4.628906 28.035156 C 3.898438 28.035156 3.308594 27.441406 3.308594 26.710938 L 3.308594 4.21875 C 3.308594 3.488281 3.898438 2.894531 4.628906 2.894531 Z M 4.628906 2.894531 "/>
<path style=" stroke:none;fill-rule:nonzero;fill:rgb(100%,100%,100%);fill-opacity:0.392157;" d="M 4.628906 2.894531 C 3.898438 2.894531 3.308594 3.484375 3.308594 4.21875 L 3.308594 4.554688 C 3.308594 3.820312 3.898438 3.230469 4.628906 3.230469 L 27.121094 3.230469 C 27.855469 3.230469 28.445312 3.820312 28.445312 4.554688 L 28.445312 4.21875 C 28.445312 3.484375 27.855469 2.894531 27.121094 2.894531 Z M 4.628906 2.894531 "/>
<path style=" stroke:none;fill-rule:nonzero;fill:rgb(0%,0%,0%);fill-opacity:0.235294;" d="M 4.628906 28.035156 C 3.898438 28.035156 3.308594 27.445312 3.308594 26.710938 L 3.308594 26.214844 C 3.308594 26.949219 3.898438 27.539062 4.628906 27.539062 L 27.121094 27.539062 C 27.855469 27.539062 28.445312 26.949219 28.445312 26.214844 L 28.445312 26.710938 C 28.445312 27.445312 27.855469 28.035156 27.121094 28.035156 Z M 4.628906 28.035156 "/>
<path style="fill:none;stroke-width:3;stroke-linecap:round;stroke-linejoin:round;stroke:rgb(12.941177%,12.941177%,12.941177%);stroke-opacity:1;stroke-miterlimit:4;" d="M 74.055428 -168.691922 L 433.896065 -168.691922 C 445.582449 -168.691922 455.081542 -159.192829 455.081542 -147.506445 L 455.081542 212.334192 C 455.081542 224.020576 445.582449 233.519669 433.896065 233.519669 L 74.055428 233.519669 C 62.369044 233.519669 52.932445 224.020576 52.932445 212.334192 L 52.932445 -147.506445 C 52.932445 -159.192829 62.369044 -168.691922 74.055428 -168.691922 Z M 74.055428 -168.691922 " transform="matrix(0.062506,0,0,0.062506,0,13.438783)"/>
<path style=" stroke:none;fill-rule:nonzero;fill:url(#linear2);" d="M 11.914062 10.171875 C 10.082031 10.171875 8.605469 11.648438 8.605469 13.480469 C 8.605469 14.226562 8.851562 14.917969 9.269531 15.46875 L 9.269531 16.191406 C 9.269531 18.390625 9.960938 20.160156 10.824219 20.160156 L 11.019531 20.160156 C 11.808594 20.160156 12.460938 18.671875 12.5625 16.726562 C 12.898438 16.660156 13.21875 16.539062 13.511719 16.378906 C 13.566406 17.117188 15.222656 17.117188 15.222656 16.125 L 16.542969 16.125 C 16.542969 17.117188 18.199219 17.117188 18.253906 16.378906 C 18.546875 16.539062 18.867188 16.660156 19.203125 16.726562 C 19.304688 18.671875 19.957031 20.160156 20.75 20.160156 L 20.941406 20.160156 C 21.804688 20.160156 22.5 18.390625 22.5 16.191406 L 22.5 15.46875 C 22.914062 14.917969 23.160156 14.226562 23.160156 13.480469 C 23.160156 11.648438 21.683594 10.171875 19.851562 10.171875 C 18.765625 10.171875 17.804688 10.691406 17.203125 11.496094 L 14.5625 11.496094 C 13.960938 10.691406 13 10.171875 11.914062 10.171875 Z M 15.550781 12.324219 L 16.214844 12.324219 C 16.398438 12.324219 16.542969 12.46875 16.542969 12.652344 L 16.542969 13.644531 L 17.207031 13.644531 L 15.882812 15.300781 L 14.558594 13.644531 L 15.222656 13.644531 L 15.222656 12.652344 C 15.222656 12.46875 15.367188 12.324219 15.550781 12.324219 Z M 15.550781 12.324219 "/>
<path style=" stroke:none;fill-rule:nonzero;fill:rgb(96.862745%,96.862745%,96.862745%);fill-opacity:1;" d="M 11.914062 10.171875 C 10.082031 10.171875 8.605469 11.648438 8.605469 13.480469 C 8.605469 13.550781 8.609375 13.621094 8.613281 13.6875 C 8.71875 11.953125 10.148438 10.585938 11.914062 10.585938 C 13 10.585938 13.960938 11.105469 14.5625 11.910156 L 17.203125 11.910156 C 17.804688 11.105469 18.765625 10.585938 19.851562 10.585938 C 21.617188 10.585938 23.046875 11.953125 23.152344 13.6875 C 23.15625 13.621094 23.160156 13.550781 23.160156 13.480469 C 23.160156 11.648438 21.683594 10.171875 19.851562 10.171875 C 18.765625 10.171875 17.804688 10.691406 17.203125 11.496094 L 14.5625 11.496094 C 13.960938 10.691406 13 10.171875 11.914062 10.171875 Z M 14.558594 14.058594 L 15.882812 15.714844 L 17.207031 14.058594 L 16.875 14.058594 L 15.882812 15.300781 L 14.890625 14.058594 Z M 14.558594 14.058594 "/>
<path style=" stroke:none;fill-rule:nonzero;fill:rgb(0%,0%,0%);fill-opacity:0.235294;" d="M 15.550781 12.316406 C 15.367188 12.316406 15.222656 12.464844 15.222656 12.648438 L 15.222656 13.378906 C 15.222656 13.195312 15.367188 13.046875 15.550781 13.046875 L 16.214844 13.046875 C 16.398438 13.046875 16.542969 13.195312 16.542969 13.378906 L 16.542969 12.648438 C 16.542969 12.464844 16.398438 12.316406 16.214844 12.316406 Z M 14.558594 13.640625 L 15.144531 14.371094 L 15.222656 14.371094 L 15.222656 13.640625 Z M 16.542969 13.640625 L 16.542969 14.371094 L 16.621094 14.371094 L 17.207031 13.640625 Z M 8.625 13.839844 C 8.613281 13.960938 8.605469 14.082031 8.605469 14.203125 C 8.605469 14.953125 8.851562 15.640625 9.269531 16.195312 L 9.269531 16.917969 C 9.269531 19.117188 9.960938 20.886719 10.824219 20.886719 L 11.019531 20.886719 C 11.808594 20.886719 12.460938 19.394531 12.5625 17.449219 C 12.898438 17.382812 13.21875 17.265625 13.511719 17.105469 C 13.566406 17.84375 15.222656 17.84375 15.222656 16.851562 L 16.542969 16.851562 C 16.542969 17.84375 18.199219 17.84375 18.253906 17.105469 C 18.546875 17.265625 18.867188 17.382812 19.203125 17.449219 C 19.304688 19.394531 19.957031 20.886719 20.75 20.886719 L 20.941406 20.886719 C 21.804688 20.886719 22.5 19.117188 22.5 16.917969 L 22.5 16.195312 C 22.914062 15.640625 23.160156 14.953125 23.160156 14.203125 C 23.160156 14.082031 23.152344 13.960938 23.140625 13.839844 C 23.074219 14.445312 22.84375 15.003906 22.5 15.464844 L 22.5 16.1875 C 22.5 18.386719 21.804688 20.15625 20.941406 20.15625 L 20.75 20.15625 C 19.957031 20.15625 19.304688 18.664062 19.203125 16.71875 C 18.867188 16.652344 18.546875 16.535156 18.253906 16.375 C 18.199219 17.113281 16.542969 17.113281 16.542969 16.121094 L 15.222656 16.121094 C 15.222656 17.113281 13.566406 17.113281 13.511719 16.375 C 13.21875 16.535156 12.898438 16.652344 12.5625 16.71875 C 12.460938 18.664062 11.808594 20.15625 11.019531 20.15625 L 10.824219 20.15625 C 9.960938 20.15625 9.269531 18.386719 9.269531 16.1875 L 9.269531 15.464844 C 8.921875 15.003906 8.691406 14.445312 8.625 13.839844 Z M 8.625 13.839844 "/>
<path style="fill:none;stroke-width:3;stroke-linecap:round;stroke-linejoin:round;stroke:rgb(12.941177%,12.941177%,12.941177%);stroke-opacity:1;stroke-miterlimit:4;" d="M 190.50395 -46.974117 C 161.194249 -46.974117 137.571505 -23.351372 137.571505 5.958329 C 137.571505 17.894689 141.508629 28.956132 148.19549 37.767791 L 148.19549 49.329187 C 148.19549 84.513327 159.256934 112.823124 173.068115 112.823124 L 176.192816 112.823124 C 188.816611 112.823124 199.253114 89.012897 200.877959 57.890869 C 206.252446 56.828471 211.376956 54.891156 216.064009 52.3289 C 216.938925 64.140273 243.436395 64.140273 243.436395 48.266788 L 264.559378 48.266788 C 264.559378 64.140273 291.056847 64.140273 291.931764 52.3289 C 296.618816 54.891156 301.743327 56.828471 307.117814 57.890869 C 308.742659 89.012897 319.179162 112.823124 331.86545 112.823124 L 334.927658 112.823124 C 348.738839 112.823124 359.862777 84.513327 359.862777 49.329187 L 359.862777 37.767791 C 366.487144 28.956132 370.424268 17.894689 370.424268 5.958329 C 370.424268 -23.351372 346.801524 -46.974117 317.491823 -46.974117 C 300.118482 -46.974117 284.74495 -38.66241 275.120869 -25.78864 L 232.874904 -25.78864 C 223.250823 -38.66241 207.877291 -46.974117 190.50395 -46.974117 Z M 248.685894 -12.539905 L 259.309879 -12.539905 C 262.247099 -12.539905 264.559378 -10.227626 264.559378 -7.290406 L 264.559378 8.583078 L 275.183363 8.583078 L 253.997886 35.080548 L 232.812409 8.583078 L 243.436395 8.583078 L 243.436395 -7.290406 C 243.436395 -10.227626 245.748674 -12.539905 248.685894 -12.539905 Z M 248.685894 -12.539905 " transform="matrix(0.062506,0,0,0.062506,0.00642863,13.108038)"/>
</g>
</svg>
